svg/SJJB-OpenStreetMapIcons/education/university.svg

<?xml version="1.0" encoding="UTF-8" standalone="no"?>
<!-- Created with Inkscape (http://www.inkscape.org/) -->
<svg
   xmlns:dc="http://purl.org/dc/elements/1.1/"
   xmlns:cc="http://creativecommons.org/ns#"
   xmlns:rdf="http://www.w3.org/1999/02/22-rdf-syntax-ns#"
   xmlns:svg="http://www.w3.org/2000/svg"
   xmlns="http://www.w3.org/2000/svg"
   xmlns:sodipodi="http://sodipodi.sourceforge.net/DTD/sodipodi-0.dtd"
   xmlns:inkscape="http://www.inkscape.org/namespaces/inkscape"
   version="1.0"
   width="580"
   height="580"
   id="svg2"
   sodipodi:version="0.32"
   inkscape:version="0.46"
   sodipodi:docname="university.svg"
   sodipodi:docbase="s:\Data\FacilityIcons"
   inkscape:output_extension="org.inkscape.output.svg.inkscape">
  <metadata
     id="metadata2975">
    <rdf:RDF>
      <cc:Work
         rdf:about="">
        <dc:format>image/svg+xml</dc:format>
        <dc:type
           rdf:resource="http://purl.org/dc/dcmitype/StillImage" />
			  <cc:license
           rdf:resource="http://web.resource.org/cc/PublicDomain" />
        <dc:language>en</dc:language>
      </cc:Work>
    </rdf:RDF>
  </metadata>
  <sodipodi:namedview
     inkscape:window-height="947"
     inkscape:window-width="1048"
     inkscape:pageshadow="2"
     inkscape:pageopacity="0.0"
     guidetolerance="10.0"
     gridtolerance="10.0"
     objecttolerance="10.0"
     borderopacity="1.0"
     bordercolor="#666666"
     pagecolor="#ffffff"
     id="base"
     inkscape:zoom="0.65172414"
     inkscape:cx="301.2713"
     inkscape:cy="80.605963"
     inkscape:window-x="91"
     inkscape:window-y="25"
     inkscape:current-layer="svg2"
     showgrid="false" />
  <defs
     id="defs4">
    <inkscape:perspective
       sodipodi:type="inkscape:persp3d"
       inkscape:vp_x="0 : 290 : 1"
       inkscape:vp_y="0 : 1000 : 0"
       inkscape:vp_z="580 : 290 : 1"
       inkscape:persp3d-origin="290 : 193.33333 : 1"
       id="perspective2441" />
    <inkscape:perspective
       id="perspective3452"
       inkscape:persp3d-origin="30 : 20 : 1"
       inkscape:vp_z="60 : 30 : 1"
       inkscape:vp_y="0 : 1000 : 0"
       inkscape:vp_x="0 : 30 : 1"
       sodipodi:type="inkscape:persp3d" />
    <symbol
       viewBox="244.5 110 489 219.9"
       id="symbol-university">
      <path
         id="path4460"
         d="M79,43l57,119c0,0,21-96,104-96s124,106,124,106l43-133l82-17L0,17L79,43z" />
      <path
         id="path4462"
         d="M94,176l-21,39"
         stroke-width="20"
         stroke="#000000"
         fill="none" />
      <path
         id="path4464"
         d="M300,19c0,10.5-22.6,19-50.5,19S199,29.5,199,19s22.6-19,50.5-19S300,8.5,300,19z" />
      <path
         id="path4466"
         d="M112,216l-16-38L64,88c0,0-9-8-4-35s16-24,16-24"
         stroke-width="20"
         stroke="#000000"
         ill="none" />
    </symbol>
    <inkscape:perspective
       id="perspective4471"
       inkscape:persp3d-origin="372.04724 : 350.78739 : 1"
       inkscape:vp_z="744.09448 : 526.18109 : 1"
       inkscape:vp_y="0 : 1000 : 0"
       inkscape:vp_x="0 : 526.18109 : 1"
       sodipodi:type="inkscape:persp3d" />
    <inkscape:perspective
       id="perspective4668"
       inkscape:persp3d-origin="6 : 4 : 1"
       inkscape:vp_z="12 : 6 : 1"
       inkscape:vp_y="0 : 1000 : 0"
       inkscape:vp_x="0 : 6 : 1"
       sodipodi:type="inkscape:persp3d" />
    <marker
       viewBox="0 0 10 10"
       refY="5"
       refX="10"
       orient="auto"
       markerWidth="4"
       markerUnits="strokeWidth"
       markerHeight="3"
       id="ArrowStart">
      <path
         id="path3634"
         d="M 10 0 L 0 5 L 10 10 z" />
    </marker>
    <marker
       viewBox="0 0 10 10"
       refY="5"
       refX="0"
       orient="auto"
       markerWidth="4"
       markerUnits="strokeWidth"
       markerHeight="3"
       id="ArrowEnd">
      <path
         id="path3631"
         d="M 0 0 L 10 5 L 0 10 z" />
    </marker>
    <inkscape:perspective
       id="perspective2510"
       inkscape:persp3d-origin="306.082 : 204.39034 : 1"
       inkscape:vp_z="612.164 : 306.58551 : 1"
       inkscape:vp_y="0 : 1000 : 0"
       inkscape:vp_x="0 : 306.58551 : 1"
       sodipodi:type="inkscape:persp3d" />
    <marker
       viewBox="0 0 10 10"
       refY="5"
       refX="10"
       orient="auto"
       markerWidth="4"
       markerUnits="strokeWidth"
       markerHeight="3"
       id="marker2611">
      <path
         id="path1325"
         d="M 10 0 L 0 5 L 10 10 z" />
    </marker>
    <marker
       viewBox="0 0 10 10"
       refY="5"
       refX="0"
       orient="auto"
       markerWidth="4"
       markerUnits="strokeWidth"
       markerHeight="3"
       id="marker2608">
      <path
         id="path1322"
         d="M 0 0 L 10 5 L 0 10 z" />
    </marker>
    <inkscape:perspective
       id="perspective2605"
       inkscape:persp3d-origin="306.082 : 204.39034 : 1"
       inkscape:vp_z="612.164 : 306.58551 : 1"
       inkscape:vp_y="0 : 1000 : 0"
       inkscape:vp_x="0 : 306.58551 : 1"
       sodipodi:type="inkscape:persp3d" />
    <inkscape:perspective
       id="perspective2656"
       inkscape:persp3d-origin="372.04724 : 350.78739 : 1"
       inkscape:vp_z="744.09448 : 526.18109 : 1"
       inkscape:vp_y="0 : 1000 : 0"
       inkscape:vp_x="0 : 526.18109 : 1"
       sodipodi:type="inkscape:persp3d" />
  </defs>
  <g
     id="g1327">
    <path
       d="M 66.275,1.768 C 24.94,1.768 1.704,23.139 1.704,66.804 L 1.704,516.927 C 1.704,557.771 22.599,579.156 63.896,579.156 L 515.92,579.156 C 557.227,579.156 578.149,558.841 578.149,516.927 L 578.149,66.804 C 578.149,24.203 557.227,1.768 514.628,1.768 C 514.624,1.768 66.133,1.625 66.275,1.768 z "
       style="fill:#111;stroke:#eee;stroke-width:3.40799999"
       id="path1329" />
  </g>
  <g
     id="layer3"
     inkscape:label="Layout"
     style="display:none;stroke:#757575;stroke-opacity:1"
     transform="matrix(48.14969,0,0,48.14969,-536.27327,-33.306752)">
    <rect
       style="fill:none;stroke:#757575;stroke-width:0.10000000000000001;stroke-miterlimit:4;stroke-dasharray:none;stroke-opacity:1;display:inline"
       id="rect4134"
       width="10"
       height="10"
       x="1"
       y="1" />
    <rect
       style="fill:none;stroke:#757575;stroke-width:0.10000000000000001;stroke-miterlimit:4;stroke-dasharray:none;stroke-opacity:1;display:inline"
       id="rect4136"
       width="8"
       height="8"
       x="2"
       y="2" />
  </g>
  <path
     style="fill:#ffffff;fill-rule:evenodd;stroke:#ffffff;stroke-width:10;stroke-linecap:round;stroke-linejoin:round;stroke-miterlimit:4;stroke-dasharray:none;stroke-opacity:1"
     d="M 272.88678,135.49087 L 24.554768,260.20708 L 334.04076,264.35727 L 559.5004,146.80474 L 272.88678,135.49087 z"
     id="path2662" />
  <path
     style="fill:#ffffff;fill-rule:evenodd;stroke:#ffffff;stroke-width:10;stroke-linecap:round;stroke-linejoin:round;stroke-opacity:1;stroke-miterlimit:4;stroke-dasharray:none"
     d="M 127.2667,365.3754 L 154.09984,286.09352 L 341.09332,291.42596 L 465.59678,223.64726 L 515.40623,281.48345 C 515.40623,281.48345 452.5225,288.41485 425.1209,305.43773 C 397.7193,322.4606 362.17606,363.44383 362.17606,363.44383 C 362.17606,363.44383 284.79228,336.638 249.00949,336.03614 C 180.69074,334.88703 131.50867,364.45854 127.2667,365.3754 z"
     id="path2664"
     sodipodi:nodetypes="cccccscsc" />
  <path
     style="fill:#ffffff;fill-opacity:1;fill-rule:evenodd;stroke:none;stroke-width:20;stroke-linecap:butt;stroke-linejoin:miter;stroke-miterlimit:4;stroke-dasharray:none;stroke-opacity:1"
     d="M 134.25,280.09375 L 104.21875,280.53125 C 100.02835,287.5158 97.009988,296.28576 93.78125,306.71875 C 89.128683,321.75255 85.191392,339.76671 82.875,357.71875 C 74.146268,425.36641 74.125,456.65625 74.125,456.65625 L 94.125,456.65625 C 94.125,456.65625 94.08782,427.17095 102.71875,360.28125 C 104.88395,343.50095 108.62408,326.36097 112.875,312.625 C 117.12592,298.88903 123.05253,288.10333 124.5625,286.625 C 128.09983,283.16179 131.17852,281.42336 133.1875,280.53125 C 133.63538,280.33236 133.96818,280.20769 134.25,280.09375 z"
     id="path2666" />
  <path
     style="fill:#ffffff;fill-opacity:1;stroke:#ffffff;stroke-width:15.4746418;stroke-linecap:butt;stroke-linejoin:round;stroke-miterlimit:4;stroke-dashoffset:0;stroke-opacity:1"
     d="M 106.46373,433.24868 C 106.46373,446.35545 91.82635,480.99284 78.719573,480.99284 C 65.612797,480.99284 58.975414,446.35545 58.975414,433.24868 C 58.975414,420.1419 69.612797,409.50452 82.719573,409.50452 C 95.82635,409.50452 106.46373,420.1419 106.46373,433.24868 z"
     id="path3462"
     sodipodi:nodetypes="csssc" />
  <path
     id="path3466"
     d="M 81.949709,438.15162 L 69.214311,492.79019 L 81.949709,438.15162 z"
     style="fill:none;fill-rule:evenodd;stroke:#ffffff;stroke-width:10;stroke-linecap:round;stroke-linejoin:round;stroke-miterlimit:4;stroke-dasharray:none;stroke-opacity:1"
     sodipodi:nodetypes="ccc" />
  <path
     style="fill:none;fill-rule:evenodd;stroke:#ffffff;stroke-width:10;stroke-linecap:round;stroke-linejoin:round;stroke-miterlimit:4;stroke-dasharray:none;stroke-opacity:1"
     d="M 106.41283,437.87281 L 88.618917,496.4658 L 106.41283,437.87281 z"
     id="path3468"
     sodipodi:nodetypes="ccc" />
  <path
     sodipodi:nodetypes="ccc"
     id="path3471"
     d="M 56.079496,432.50244 L 51.793515,485.72506 L 56.079496,432.50244 z"
     style="fill:none;fill-rule:evenodd;stroke:#ffffff;stroke-width:10;stroke-linecap:round;stroke-linejoin:round;stroke-miterlimit:4;stroke-dasharray:none;stroke-opacity:1" />
  <path
     sodipodi:nodetypes="ccc"
     id="path3482"
     d="M 65.682673,436.61091 L 61.396692,489.83353 L 65.682673,436.61091 z"
     style="fill:none;fill-rule:evenodd;stroke:#ffffff;stroke-width:10;stroke-linecap:round;stroke-linejoin:round;stroke-miterlimit:4;stroke-dasharray:none;stroke-opacity:1" />
  <path
     sodipodi:nodetypes="ccc"
     style="fill:none;fill-rule:evenodd;stroke:#ffffff;stroke-width:10;stroke-linecap:round;stroke-linejoin:round;stroke-miterlimit:4;stroke-dasharray:none;stroke-opacity:1"
     d="M 91.949709,440.15162 L 79.214311,494.79019 L 91.949709,440.15162 z"
     id="path3484" />
</svg>

<svg xmlns="http://www.w3.org/2000/svg" viewBox="0 0 580 580"><path d="m66.28 1.768c-41.34 0-64.57 21.371-64.57 65.04v450.12c0 40.844 20.895 62.23 62.19 62.23h452.02c41.31 0 62.23-20.315 62.23-62.23v-450.12c0-42.601-20.922-65.04-63.52-65.04-.004 0-448.5-.143-448.35 0z" fill="#111" stroke="#eee" stroke-width="3.408"/><g fill="#fff"><g fill-rule="evenodd"><g stroke="#fff" stroke-linejoin="round" stroke-linecap="round" stroke-width="10"><path d="m272.89 135.49l-248.33 124.72 309.49 4.15 225.46-117.55-286.61-11.314z"/><path d="m127.27 365.38l26.833-79.28 186.99 5.332 124.5-67.779 49.809 57.836c0 0-62.884 6.931-90.29 23.954-27.402 17.02-62.945 58.01-62.945 58.01 0 0-77.38-26.806-113.17-27.408-68.32-1.149-117.5 28.422-121.74 29.339z"/></g><path d="m134.25 280.09l-30.03.438c-4.19 6.985-7.209 15.755-10.438 26.19-4.653 15.03-8.59 33.05-10.906 51-8.729 67.65-8.75 98.94-8.75 98.94h20c0 0-.037-29.485 8.594-96.37 2.165-16.78 5.905-33.92 10.156-47.656 4.251-13.736 10.178-24.522 11.688-26 3.537-3.463 6.616-5.202 8.625-6.094.448-.199.781-.324 1.063-.438"/></g><path d="m106.46 433.25c0 13.11-14.637 47.744-27.744 47.744-13.11 0-19.744-34.637-19.744-47.744 0-13.11 10.637-23.744 23.744-23.744 13.11 0 23.744 10.637 23.744 23.744z" stroke="#fff" stroke-linejoin="round" stroke-width="15.475"/></g><g fill="none" fill-rule="evenodd" stroke="#fff" stroke-linejoin="round" stroke-linecap="round" stroke-width="10"><path d="m81.95 438.15l-12.735 54.639 12.735-54.639z"/><path d="m106.41 437.87l-17.794 58.59 17.794-58.59z"/><path d="m56.08 432.5l-4.286 53.22 4.286-53.22z"/><path d="m65.68 436.61l-4.286 53.22 4.286-53.22z"/><path d="m91.95 440.15l-12.735 54.639 12.735-54.639z"/></g></svg>
